X:1
T:Title
%%score { ( 1 3 4 ) | 2 }
L:1/8
Q:1/4=100
M:4/4
K:F
V:1 treble nm="Grand Piano"
V:3 treble 
V:4 treble 
V:2 bass 
V:1
 F2 F2 F2 F2 | F>E F>G F2 E2 | G2 G2 G2 G2 | G>^F G>A G2 =F2 | A2 A2 [FA]2 G>A | %5
w: J.~H.~Fillmore * * *|||||
 [FB]2 [FB]2 [DFB]4 | [DF=B]2 [DFB]2 B>G A>B | c2- [Gc-]2 [Ac-]2 [Bc]2 | A4 z2 (3FG_A | %9
w: ||||
 A4 z2 (3FG_A | A>A _A>=A d2 c2 | c4 B4 | B4 z2 (3FGA | B4 z2 (3FGA | B>B A>B e2 d2 | %15
w: ||||||
 z2 c>c c2 c2 | A4 z2 (3FG_A | A4 z2 (3FG_A | A>A _A>=A d2 c2 | c4 B4 | %20
w: |||||
 [DGB]3 [DGB] [D^FA]2 [DFA]2 | [DG]2 [DG]2 [F_Ad]2 [FAd]2 | [FAc]4 [B,CE]4 | %23
w: |||
 [A,CF]2 [FAf]>[FAf] [FAf]2 [FAf]2 |] %24
w: |
V:2
 [F,A,C]2 [C,A,C]2 [F,A,C]2 [C,A,C]2 | [F,A,C]2 [C,A,C]2 [G,B,C]2 [C,B,C]2 | %2
 [E,B,C]2 [C,B,C]2 [E,B,C]2 [C,B,C]2 | [E,B,C]2 [C,B,C]2 [F,A,C]2 [C,A,C]2 | %4
 [F,CF]2 [F,CF]2 [_E,C]4 | [D,B,]2 [D,B,]2 [B,,B,]4 | [G,,G,]2 [G,,G,]2 [G,=B,DF]4 | %7
 [C,C]2[K:treble] [B,CE]2 [A,CF]2 [G,CEG]2 | [F,,F,]2 [F,A,]2 [F,A,]2 [F,A,]2 | %9
 [F,,F,]2 [F,A,]2 [F,A,]2 [F,A,]2 | [F,,F,]2 [F,A,C]2 [F,A,C]2 [F,A,C]2 | %11
 [G,,G,]2 [G,B,]2 [G,B,D]2 [G,B,]2 | [C,,C,]2 [G,B,]2 [G,B,]2 [G,B,]2 | %13
 [C,,C,]2 [G,B,]2 [G,B,]2 [G,B,]2 | [C,,C,]2 [G,B,C]2 [G,B,C]2 [G,B,C]2 | [F,,F,]2 C>C C2 C2 | %16
 [F,,F,]2 [F,A,]2 [F,A,]2 [F,A,]2 | [F,,F,]2 [F,A,]2 [F,A,]2 [F,A,]2 | %18
 [F,,F,]2 [F,A,C]2 [F,A,C]2 [F,A,C]2 | [G,,G,]2 [G,B,]2 [G,B,D]2 [G,B,]2 | %20
 [G,,G,]3 [G,,G,] [A,,A,]2 [A,,A,]2 | [B,,B,]2 [B,,B,]2 [=B,,=B,]2 [B,,B,]2 | [C,C]4 [C,,C,]4 | %23
 [F,,F,]2 [F,A,C]>[F,A,C] [F,A,C]2 [F,A,C]2 |] %24
V:3
 x8 | x8 | x8 | x8 | z4 z z/ F/- F2 | x8 | x8 | E2 z2 z4 | z2 C2 (3z DE z2 | z2 C2 (3z DE z2 | x8 | %11
 z2 D2 z2 D2 | z2 C2 (3z DE z2 | z2 C2 (3z DE z2 | x8 | A8 | z2 C2 (3z DE z2 | z2 C2 (3z DE z2 | %18
 x8 | z2 D2 z2 D2 | x8 | x8 | x8 | x8 |] %24
V:4
 x8 | x8 | x8 | x8 | x8 | x8 | x8 | x8 | z4 C4 | z4 C4 | x8 | x8 | z4 C4 | z4 C4 | x8 | x8 | %16
 z4 C4 | z4 C4 | x8 | x8 | x8 | x8 | x8 | x8 |] %24

